build/img/in.svg

<svg width="46" height="46" viewBox="0 0 46 46" fill="none" xmlns="http://www.w3.org/2000/svg">
<circle cx="23" cy="23" r="23" fill="#2B3BB7"/>
<path d="M16.1913 16.8025C17.45 16.8025 18.4704 15.7821 18.4704 14.5233C18.4704 13.2646 17.45 12.2441 16.1913 12.2441C14.9325 12.2441 13.9121 13.2646 13.9121 14.5233C13.9121 15.7821 14.9325 16.8025 16.1913 16.8025Z" fill="#F3F3F3"/>
<path d="M20.6225 18.5293V31.1741H24.5486V24.921C24.5486 23.271 24.859 21.673 26.9048 21.673C28.9225 21.673 28.9475 23.5595 28.9475 25.0251V31.1751H32.8757V24.2408C32.8757 20.8345 32.1423 18.2168 28.1611 18.2168C26.2496 18.2168 24.9684 19.2658 24.4444 20.2585H24.3913V18.5293H20.6225ZM14.2246 18.5293H18.1569V31.1741H14.2246V18.5293Z" fill="#F3F3F3"/>
</svg>

<svg width="46" height="46" fill="none" xmlns="http://www.w3.org/2000/svg"><circle cx="23" cy="23" r="23" fill="#2B3BB7"/><path d="M16.191 16.802a2.28 2.28 0 100-4.558 2.28 2.28 0 000 4.558zM20.622 18.53v12.644h3.927v-6.253c0-1.65.31-3.248 2.356-3.248 2.017 0 2.043 1.887 2.043 3.352v6.15h3.928v-6.934c0-3.407-.734-6.024-4.715-6.024-1.911 0-3.193 1.049-3.717 2.042h-.053v-1.73h-3.768zm-6.397 0h3.932v12.644h-3.932V18.53z" fill="#F3F3F3"/></svg>
